src/assets/obucheniye/icons/time.svg

<svg fill="none" height="72" viewBox="0 0 72 72" width="72" xmlns="http://www.w3.org/2000/svg"><g fill="#942fe5" stroke="#942fe5" stroke-width=".5"><path d="m63.5312 14.3898h2.1628c.7545 0 1.3663-.6118 1.3663-1.3663s-.6118-1.3663-1.3663-1.3663h-5.1919c-.7545 0-1.3663.6118-1.3663 1.3663v5.1919c0 .7545.6118 1.3663 1.3663 1.3663s1.3663-.6118 1.3663-1.3663v-1.5033c4.1456 5.55 6.399 12.284 6.399 19.2879 0 17.7924-14.475 32.2674-32.2674 32.2674s-32.26742-14.475-32.26742-32.2674 14.47502-32.26742 32.26742-32.26742c1.3159 0 2.6402.07993 3.9366.23746.748.09045 1.4302-.44227 1.5212-1.1914.0911-.749-.4423-1.43024-1.1914-1.52123-1.4054-.17079-2.8407-.25741-4.2664-.25741-9.3488 0-18.1382 3.64062-24.7487 10.2513-6.61068 6.6105-10.2513 15.3999-10.2513 24.7487s3.64062 18.1382 10.2513 24.7487c6.6105 6.6107 15.3999 10.2513 24.7487 10.2513s18.1382-3.6406 24.7487-10.2513c6.6107-6.6105 10.2513-15.3999 10.2513-24.7487 0-7.8891-2.6356-15.4627-7.4688-21.6102z"/><path d="m15.8194 21.6329c-.6376-.4036-1.4816-.2137-1.8853.4235-3.1191 4.9263-4.49988 10.8508-3.8879 16.6823.621 5.9179 3.2845 11.4987 7.5001 15.7144 5.0874 5.0874 11.77 7.6311 18.4528 7.6311s13.3654-2.5436 18.4529-7.6311c10.1749-10.1749 10.1749-26.7308 0-36.9056-4.2091-4.209-9.7807-6.8716-15.6888-7.4974-5.8207-.61686-11.7388.7531-16.6631 3.8569-.6384.4024-.8296 1.2461-.4273 1.8844.4023.6385 1.246.8296 1.8844.4274 9.2823-5.8505 21.1918-4.5097 28.9624 3.2609 9.1095 9.1095 9.1095 23.9316 0 33.041-9.1093 9.1096-23.9316 9.1096-33.041 0-7.6632-7.6632-9.024-19.8605-3.2356-29.0024.4035-.6376.214-1.4817-.4236-1.8854z"/><path d="m53.7628 37.3886h1.6849c.7545 0 1.3663-.6118 1.3663-1.3663s-.6118-1.3663-1.3663-1.3663h-1.6849c-.7545 0-1.3663.6118-1.3663 1.3663s.6117 1.3663 1.3663 1.3663z"/><path d="m15.1875 35.9779c0 .7544.6118 1.3663 1.3663 1.3663h1.6849c.7545 0 1.3663-.6119 1.3663-1.3663 0-.7545-.6118-1.3663-1.3663-1.3663h-1.6849c-.7545 0-1.3663.6117-1.3663 1.3663z"/><path d="m37.3888 18.2382v-1.6849c0-.7545-.6118-1.3663-1.3663-1.3663-.7544 0-1.3663.6118-1.3663 1.3663v1.6849c0 .7545.6119 1.3663 1.3663 1.3663.7545 0 1.3663-.6118 1.3663-1.3663z"/><path d="m34.6113 53.762v1.685c0 .7544.6119 1.3662 1.3663 1.3662.7545 0 1.3663-.6118 1.3663-1.3662v-1.685c0-.7544-.6118-1.3662-1.3663-1.3662-.7544 0-1.3663.6116-1.3663 1.3662z"/><path d="m29.1528 27.2194c-.5337-.5334-1.3985-.5334-1.9323 0-.5336.5335-.5336 1.3986 0 1.9323l4.6305 4.6305c-.3549.6613-.5567 1.4164-.5567 2.2179 0 2.5954 2.1115 4.7069 4.7069 4.7069s4.7069-2.1115 4.7069-4.7069c0-.8015-.202-1.5566-.5566-2.2179l9.3431-9.3431c.5335-.5336.5335-1.3987 0-1.9324-.5337-.5334-1.3986-.5334-1.9324 0l-9.3431 9.3431c-.6613-.3548-1.4164-.5566-2.2179-.5566s-1.5566.202-2.2179.5566zm8.8227 8.7807c0 1.0887-.8856 1.9743-1.9743 1.9743s-1.9743-.8856-1.9743-1.9743.8856-1.9743 1.9743-1.9743 1.9743.8856 1.9743 1.9743z"/><path d="m19.4787 19.4787c.2555-.2541.4016-.6066.4016-.9659 0-.3594-.1461-.7105-.4016-.966-.2541-.254-.6054-.4003-.9659-.4003-.3594 0-.7119.1462-.966.4003-.254.2541-.4003.6066-.4003.966 0 .3607.1462.7118.4003.9659.2541.254.6066.4004.966.4004.3605 0 .7118-.1464.9659-.4004z"/><path d="m45.4639 5.08244c.3609 0 .7134-.14497.9674-.40033.2541-.25413.4004-.6054.4004-.96597 0-.35933-.1462-.71183-.4004-.96596-.254-.254-.6065-.40033-.9674-.40033-.3593 0-.7118.1462-.9658.40033-.2541.25413-.4004.60663-.4004.96596 0 .36071.1461.71184.4004.96597.254.25536.6065.40033.9658.40033z"/></g></svg>

<svg width="72" height="72" viewBox="0 0 72 72" fill="none" xmlns="http://www.w3.org/2000/svg">
<path d="M63.5312 14.3898H65.694C66.4485 14.3898 67.0603 13.778 67.0603 13.0235C67.0603 12.269 66.4485 11.6572 65.694 11.6572H60.5021C59.7476 11.6572 59.1358 12.269 59.1358 13.0235V18.2154C59.1358 18.9699 59.7476 19.5817 60.5021 19.5817C61.2566 19.5817 61.8684 18.9699 61.8684 18.2154V16.7121C66.014 22.2621 68.2674 28.9961 68.2674 36C68.2674 53.7924 53.7924 68.2674 36 68.2674C18.2076 68.2674 3.73258 53.7924 3.73258 36C3.73258 18.2076 18.2076 3.73258 36 3.73258C37.3159 3.73258 38.6402 3.81251 39.9366 3.97004C40.6846 4.06049 41.3668 3.52777 41.4578 2.77864C41.5489 2.02964 41.0155 1.3484 40.2664 1.25741C38.861 1.08662 37.4257 1 36 1C26.6512 1 17.8618 4.64062 11.2513 11.2513C4.64062 17.8618 1 26.6512 1 36C1 45.3488 4.64062 54.1382 11.2513 60.7487C17.8618 67.3594 26.6512 71 36 71C45.3488 71 54.1382 67.3594 60.7487 60.7487C67.3594 54.1382 71 45.3488 71 36C71 28.1109 68.3644 20.5373 63.5312 14.3898Z" fill="#942FE5" stroke="#942FE5" stroke-width="0.5"/>
<path d="M15.8194 21.6329C15.1818 21.2293 14.3378 21.4192 13.9341 22.0564C10.815 26.9827 9.43422 32.9072 10.0462 38.7387C10.6672 44.6566 13.3307 50.2374 17.5463 54.4531C22.6337 59.5405 29.3163 62.0842 35.9991 62.0842C42.6819 62.0842 49.3645 59.5406 54.452 54.4531C64.6269 44.2782 64.6269 27.7223 54.452 17.5475C50.2429 13.3385 44.6713 10.6759 38.7632 10.0501C32.9425 9.43324 27.0244 10.8032 22.1001 13.907C21.4617 14.3094 21.2705 15.1531 21.6728 15.7914C22.0751 16.4299 22.9188 16.621 23.5572 16.2188C32.8395 10.3683 44.749 11.7091 52.5196 19.4797C61.6291 28.5892 61.6291 43.4113 52.5196 52.5207C43.4103 61.6303 28.588 61.6303 19.4786 52.5207C11.8154 44.8575 10.4546 32.6602 16.243 23.5183C16.6465 22.8807 16.457 22.0366 15.8194 21.6329Z" fill="#942FE5" stroke="#942FE5" stroke-width="0.5"/>
<path d="M53.7628 37.3886H55.4477C56.2022 37.3886 56.814 36.7768 56.814 36.0223C56.814 35.2678 56.2022 34.656 55.4477 34.656H53.7628C53.0083 34.656 52.3965 35.2678 52.3965 36.0223C52.3965 36.7768 53.0082 37.3886 53.7628 37.3886Z" fill="#942FE5" stroke="#942FE5" stroke-width="0.5"/>
<path d="M15.1875 35.9779C15.1875 36.7323 15.7993 37.3442 16.5538 37.3442H18.2387C18.9932 37.3442 19.605 36.7323 19.605 35.9779C19.605 35.2234 18.9932 34.6116 18.2387 34.6116H16.5538C15.7993 34.6116 15.1875 35.2233 15.1875 35.9779Z" fill="#942FE5" stroke="#942FE5" stroke-width="0.5"/>
<path d="M37.3888 18.2382V16.5533C37.3888 15.7988 36.777 15.187 36.0225 15.187C35.2681 15.187 34.6562 15.7988 34.6562 16.5533V18.2382C34.6562 18.9927 35.2681 19.6045 36.0225 19.6045C36.777 19.6045 37.3888 18.9927 37.3888 18.2382Z" fill="#942FE5" stroke="#942FE5" stroke-width="0.5"/>
<path d="M34.6113 53.762V55.447C34.6113 56.2014 35.2232 56.8132 35.9776 56.8132C36.7321 56.8132 37.3439 56.2014 37.3439 55.447V53.762C37.3439 53.0076 36.7321 52.3958 35.9776 52.3958C35.2232 52.3958 34.6113 53.0074 34.6113 53.762Z" fill="#942FE5" stroke="#942FE5" stroke-width="0.5"/>
<path d="M29.1528 27.2194C28.6191 26.686 27.7543 26.686 27.2205 27.2194C26.6869 27.7529 26.6869 28.618 27.2205 29.1517L31.851 33.7822C31.4961 34.4435 31.2943 35.1986 31.2943 36.0001C31.2943 38.5955 33.4058 40.707 36.0012 40.707C38.5966 40.707 40.7081 38.5955 40.7081 36.0001C40.7081 35.1986 40.5061 34.4435 40.1515 33.7822L49.4946 24.4391C50.0281 23.9055 50.0281 23.0404 49.4946 22.5067C48.9609 21.9733 48.096 21.9733 47.5622 22.5067L38.2191 31.8498C37.5578 31.495 36.8027 31.2932 36.0012 31.2932C35.1997 31.2932 34.4446 31.4952 33.7833 31.8498L29.1528 27.2194ZM37.9755 36.0001C37.9755 37.0888 37.0899 37.9744 36.0012 37.9744C34.9125 37.9744 34.0269 37.0888 34.0269 36.0001C34.0269 34.9114 34.9125 34.0258 36.0012 34.0258C37.0899 34.0258 37.9755 34.9114 37.9755 36.0001Z" fill="#942FE5" stroke="#942FE5" stroke-width="0.5"/>
<path d="M19.4787 19.4787C19.7342 19.2246 19.8803 18.8721 19.8803 18.5128C19.8803 18.1534 19.7342 17.8023 19.4787 17.5468C19.2246 17.2928 18.8733 17.1465 18.5128 17.1465C18.1534 17.1465 17.8009 17.2927 17.5468 17.5468C17.2928 17.8009 17.1465 18.1534 17.1465 18.5128C17.1465 18.8735 17.2927 19.2246 17.5468 19.4787C17.8009 19.7327 18.1534 19.8791 18.5128 19.8791C18.8733 19.8791 19.2246 19.7327 19.4787 19.4787Z" fill="#942FE5" stroke="#942FE5" stroke-width="0.5"/>
<path d="M45.4639 5.08244C45.8248 5.08244 46.1773 4.93747 46.4313 4.68211C46.6854 4.42798 46.8317 4.07671 46.8317 3.71614C46.8317 3.35681 46.6855 3.00431 46.4313 2.75018C46.1773 2.49618 45.8248 2.34985 45.4639 2.34985C45.1046 2.34985 44.7521 2.49605 44.4981 2.75018C44.244 3.00431 44.0977 3.35681 44.0977 3.71614C44.0977 4.07685 44.2438 4.42798 44.4981 4.68211C44.7521 4.93747 45.1046 5.08244 45.4639 5.08244Z" fill="#942FE5" stroke="#942FE5" stroke-width="0.5"/>
</svg>
